Develop Presets/Pro Enhance HDR Lightroom Presets/ProenhanceHDR 8.lrtemplate
s = {
	id = "E4878A6C-248C-4615-B60C-AF13F512A0AE",
	internalName = "ProenhanceHDR 8",
	title = "ProenhanceHDR 8",
	type = "Develop",
	value = {
		settings = {
			AutoLateralCA = 1,
			Blacks2012 = 25,
			BlueHue = 0,
			BlueSaturation = 0,
			CameraProfile = "Camera Standard",
			ChromaticAberrationB = 0,
			ChromaticAberrationR = 0,
			Clarity2012 = 71,
			ColorNoiseReduction = 25,
			ColorNoiseReductionDetail = 50,
			ColorNoiseReductionSmoothness = 50,
			Contrast2012 = 40,
			ConvertToGrayscale = false,
			Defringe = 0,
			DefringeGreenAmount = 0,
			DefringeGreenHueHi = 60,
			DefringeGreenHueLo = 40,
			DefringePurpleAmount = 5,
			DefringePurpleHueHi = 70,
			DefringePurpleHueLo = 30,
			EnableCalibration = true,
			EnableColorAdjustments = true,
			EnableDetail = true,
			EnableEffects = true,
			EnableLensCorrections = true,
			EnableSplitToning = true,
			Exposure2012 = 0.6,
			GreenHue = 0,
			GreenSaturation = 0,
			Highlights2012 = 0,
			HueAdjustmentAqua = 60,
			HueAdjustmentBlue = 8,
			HueAdjustmentGreen = -11,
			HueAdjustmentMagenta = 58,
			HueAdjustmentOrange = 20,
			HueAdjustmentPurple = -100,
			HueAdjustmentRed = 44,
			HueAdjustmentYellow = 15,
			LuminanceAdjustmentAqua = 0,
			LuminanceAdjustmentBlue = 0,
			LuminanceAdjustmentGreen = 0,
			LuminanceAdjustmentMagenta = 0,
			LuminanceAdjustmentOrange = 0,
			LuminanceAdjustmentPurple = 0,
			LuminanceAdjustmentRed = 0,
			LuminanceAdjustmentYellow = 0,
			LuminanceNoiseReductionContrast = 0,
			LuminanceNoiseReductionDetail = 50,
			LuminanceSmoothing = 0,
			ParametricDarks = -4,
			ParametricHighlightSplit = 75,
			ParametricHighlights = -24,
			ParametricLights = -8,
			ParametricMidtoneSplit = 50,
			ParametricShadowSplit = 25,
			ParametricShadows = 0,
			PostCropVignetteAmount = -24,
			PostCropVignetteFeather = 77,
			PostCropVignetteHighlightContrast = 100,
			PostCropVignetteMidpoint = 68,
			PostCropVignetteRoundness = 31,
			PostCropVignetteStyle = 1,
			ProcessVersion = "6.7",
			RedHue = 0,
			RedSaturation = -57,
			Saturation = 21,
			SaturationAdjustmentAqua = 0,
			SaturationAdjustmentBlue = 0,
			SaturationAdjustmentGreen = 0,
			SaturationAdjustmentMagenta = 0,
			SaturationAdjustmentOrange = 1,
			SaturationAdjustmentPurple = 0,
			SaturationAdjustmentRed = 0,
			SaturationAdjustmentYellow = 0,
			ShadowTint = 0,
			Shadows2012 = -29,
			SharpenDetail = 25,
			SharpenEdgeMasking = 0,
			SharpenRadius = 1,
			Sharpness = 0,
			SplitToningBalance = -26,
			SplitToningHighlightHue = 71,
			SplitToningHighlightSaturation = 0,
			SplitToningShadowHue = 253,
			SplitToningShadowSaturation = 25,
			ToneCurveName2012 = "Custom",
			ToneCurvePV2012 = {
				0,
				29,
				17,
				26,
				34,
				44,
				51,
				60,
				68,
				74,
				85,
				89,
				102,
				105,
				119,
				120,
				136,
				135,
				153,
				151,
				170,
				167,
				187,
				183,
				204,
				200,
				221,
				218,
				238,
				236,
				255,
				255,
			},
			ToneCurvePV2012Blue = {
				28,
				35,
				255,
				255,
			},
			ToneCurvePV2012Green = {
				10,
				0,
				255,
				255,
			},
			ToneCurvePV2012Red = {
				32,
				32,
				255,
				255,
			},
			Vibrance = 20,
			VignetteAmount = -55,
			VignetteMidpoint = 19,
			WhiteBalance = "As Shot",
			Whites2012 = 0,
		},
		uuid = "5DCF2AE2-B60A-4B22-96C9-6963B7FDCFC3",
	},
	version = 0,
}
