Develop Presets/人像自用/树荫下日系.lrtemplate
s = {
	id = "1AE8BFC5-6EEF-44BB-8D49-385B8661B812",
	internalName = "树荫下日系",
	title = "树荫下日系",
	type = "Develop",
	value = {
		settings = {
			AutoLateralCA = 0,
			Blacks2012 = 14,
			BlueHue = -5,
			BlueSaturation = 55,
			CameraProfile = "Adobe Standard",
			ChromaticAberrationB = 0,
			ChromaticAberrationR = 0,
			Clarity2012 = 8,
			ColorNoiseReduction = 5,
			ColorNoiseReductionDetail = 24,
			ColorNoiseReductionSmoothness = 50,
			Contrast2012 = 15,
			ConvertToGrayscale = false,
			CropConstrainToWarp = 0,
			Defringe = 0,
			DefringeGreenAmount = 0,
			DefringeGreenHueHi = 60,
			DefringeGreenHueLo = 40,
			DefringePurpleAmount = 0,
			DefringePurpleHueHi = 70,
			DefringePurpleHueLo = 30,
			EnableCalibration = true,
			EnableCircularGradientBasedCorrections = true,
			EnableColorAdjustments = true,
			EnableDetail = true,
			EnableEffects = false,
			EnableGradientBasedCorrections = true,
			EnableLensCorrections = true,
			EnableSplitToning = true,
			Exposure2012 = 0.45,
			GrainAmount = 50,
			GrainFrequency = 65,
			GrainSize = 51,
			GreenHue = 59,
			GreenSaturation = -1,
			Highlights2012 = -94,
			HueAdjustmentAqua = 10,
			HueAdjustmentBlue = 0,
			HueAdjustmentGreen = 43,
			HueAdjustmentMagenta = 0,
			HueAdjustmentOrange = -12,
			HueAdjustmentPurple = 0,
			HueAdjustmentRed = 0,
			HueAdjustmentYellow = -27,
			LensManualDistortionAmount = 0,
			LensProfileEnable = 0,
			LensProfileSetup = "LensDefaults",
			LuminanceAdjustmentAqua = 10,
			LuminanceAdjustmentBlue = 0,
			LuminanceAdjustmentGreen = 38,
			LuminanceAdjustmentMagenta = 0,
			LuminanceAdjustmentOrange = 50,
			LuminanceAdjustmentPurple = 0,
			LuminanceAdjustmentRed = 5,
			LuminanceAdjustmentYellow = -21,
			LuminanceNoiseReductionContrast = 21,
			LuminanceNoiseReductionDetail = 22,
			LuminanceSmoothing = 9,
			ParametricDarks = 42,
			ParametricHighlightSplit = 75,
			ParametricHighlights = -24,
			ParametricLights = -9,
			ParametricMidtoneSplit = 43,
			ParametricShadowSplit = 14,
			ParametricShadows = -35,
			PerspectiveAspect = 0,
			PerspectiveHorizontal = 0,
			PerspectiveRotate = 0,
			PerspectiveScale = 100,
			PerspectiveUpright = 0,
			PerspectiveVertical = 0,
			PostCropVignetteAmount = 0,
			PostCropVignetteFeather = 50,
			PostCropVignetteHighlightContrast = 0,
			PostCropVignetteMidpoint = 50,
			PostCropVignetteRoundness = 0,
			PostCropVignetteStyle = 1,
			ProcessVersion = "6.7",
			RedHue = 32,
			RedSaturation = 34,
			Saturation = -5,
			SaturationAdjustmentAqua = -50,
			SaturationAdjustmentBlue = 0,
			SaturationAdjustmentGreen = -35,
			SaturationAdjustmentMagenta = 0,
			SaturationAdjustmentOrange = -31,
			SaturationAdjustmentPurple = 0,
			SaturationAdjustmentRed = 7,
			SaturationAdjustmentYellow = -43,
			ShadowTint = -2,
			Shadows2012 = 79,
			SharpenDetail = 25,
			SharpenEdgeMasking = 93,
			SharpenRadius = 1,
			Sharpness = 57,
			SplitToningBalance = 0,
			SplitToningHighlightHue = 0,
			SplitToningHighlightSaturation = 0,
			SplitToningShadowHue = 0,
			SplitToningShadowSaturation = 0,
			Temperature = 4523,
			Tint = 8,
			ToneCurveName2012 = "Custom",
			ToneCurvePV2012 = {
				0,
				24,
				21,
				29,
				61,
				56,
				109,
				104,
				255,
				251,
			},
			ToneCurvePV2012Blue = {
				0,
				0,
				44,
				21,
				120,
				122,
				176,
				203,
				255,
				255,
			},
			ToneCurvePV2012Green = {
				0,
				0,
				49,
				26,
				120,
				125,
				179,
				205,
				255,
				255,
			},
			ToneCurvePV2012Red = {
				0,
				0,
				21,
				4,
				56,
				20,
				119,
				122,
				180,
				205,
				255,
				255,
			},
			Vibrance = 19,
			VignetteAmount = 0,
			VignetteMidpoint = 50,
			WhiteBalance = "Custom",
			Whites2012 = 75,
			orientation = "AB",
		},
		uuid = "62CC3D74-205F-4ED1-8A10-CAEE2CFF4927",
	},
	version = 0,
}
